core/img/actions/twitter.svg

<svg width="16" height="16" fill="none" viewBox="0 0 16 16" xmlns="http://www.w3.org/2000/svg"><path d="m14.319 5.309c0.0096 0.14 0.0096 0.28 0.0096 0.42129 0 4.3052-3.2774 9.2703-9.2703 9.2703v-0.0025c-1.7703 0.0025-3.5039-0.5046-4.9942-1.4607 0.25742 0.031 0.51613 0.0465 0.77548 0.0471 1.4671 0.0013 2.8923-0.491 4.0464-1.3974-1.3942-0.0265-2.6168-0.9355-3.0439-2.2626 0.48839 0.09418 0.99161 0.07483 1.471-0.05613-1.52-0.3071-2.6136-1.6426-2.6136-3.1936v-0.04129c0.4529 0.25226 0.96 0.39226 1.4787 0.40774-1.4316-0.95678-1.8729-2.8613-1.0084-4.3503 1.6542 2.0355 4.0948 3.2729 6.7148 3.4039-0.26258-1.1316 0.09613-2.3174 0.94258-3.1129 1.3123-1.2335 3.3762-1.1703 4.6097 0.14129 0.7297-0.14387 1.4291-0.41161 2.0691-0.79096-0.2433 0.75419-0.7523 1.3948-1.4323 1.8019 0.6458-0.07613 1.2768-0.24903 1.871-0.5129-0.4375 0.65548-0.9884 1.2264-1.6258 1.6877z" fill="#000"/></svg>

<svg width="16" height="16" viewBox="0 0 16 16" fill="none" xmlns="http://www.w3.org/2000/svg"><path d="M14.3194 5.30903C14.329 5.44903 14.329 5.58903 14.329 5.73032C14.329 10.0355 11.0516 15.0006 5.05871 15.0006V14.9981C3.28839 15.0006 1.55484 14.4935 0.0645161 13.5374C0.321935 13.5684 0.580645 13.5839 0.84 13.5845C2.3071 13.5858 3.73226 13.0935 4.88645 12.1871C3.49226 12.1606 2.26968 11.2516 1.84258 9.92452C2.33097 10.0187 2.83419 9.99935 3.31355 9.86839C1.79355 9.56129 0.7 8.22581 0.7 6.67484C0.7 6.66064 0.7 6.6471 0.7 6.63355C1.1529 6.88581 1.66 7.02581 2.17871 7.04129C0.747097 6.08451 0.305806 4.18 1.17032 2.69097C2.82452 4.72645 5.26516 5.96387 7.88516 6.09484C7.62258 4.96322 7.98129 3.77742 8.82774 2.98193C10.14 1.74839 12.2039 1.81161 13.4374 3.12322C14.1671 2.97935 14.8665 2.71161 15.5065 2.33226C15.2632 3.08645 14.7542 3.7271 14.0742 4.13419C14.72 4.05806 15.351 3.88516 15.9452 3.62129C15.5077 4.27677 14.9568 4.84774 14.3194 5.30903Z" fill="black"/></svg>
